icons/Document/folder-music-fill.svg

<svg viewBox="0 0 24 24" xmlns="http://www.w3.org/2000/svg"><path d="M12.4142 5H21C21.5523 5 22 5.44772 22 6V20C22 20.5523 21.5523 21 21 21H3C2.44772 21 2 20.5523 2 20V4C2 3.44772 2.44772 3 3 3H10.4142L12.4142 5ZM11 13.05C10.8384 13.0172 10.6712 13 10.5 13C9.11929 13 8 14.1193 8 15.5C8 16.8807 9.11929 18 10.5 18C11.8807 18 13 16.8807 13 15.5V11H16V9H11V13.05Z"/></svg>

<svg xmlns="http://www.w3.org/2000/svg" viewBox="0 0 24 24">
    <g>
        <path fill="none" d="M0 0h24v24H0z"/>
        <path d="M12.414 5H21a1 1 0 0 1 1 1v14a1 1 0 0 1-1 1H3a1 1 0 0 1-1-1V4a1 1 0 0 1 1-1h7.414l2 2zM11 13.05a2.5 2.5 0 1 0 2 2.45V11h3V9h-5v4.05z"/>
    </g>
</svg>
